X:1
T:The Song of Texas
M:2/4
L:1/8
K:G
 D| GG GG| G G2 G| GG BG| E2 zF/2-G/2| AF DF| AcB-A| GG FA| G2 z| D|\
 GF GA| B z z d| cB AG| E z zF/2-G/2| AF DF| Ac BA| GG FA| G3||
